X:3
T:Dutch (Waltz)
S:William Nevins "Drummers, Fifers and Buglers Guide" , Chicago, 1861
F:http://www.fifedrum.org/resources/music/nevins/
S:Pete Stewart <pete:wintonpottery.co.uk> tradtunes 2010-3-13
M:3/4
L:1/4
K:D
d//e// \
| f>ed | AFA | BGB | AFA | f>ed | AFA | B2c | d3 :|
|: a \
| f2a | e2a | d>ed | cBA | f2a | e2a | gfg | aza |
| bgb | afa | geg | fzd/e/ | f>ed | AFA | B2c | d3 :|
